2-ui/2-events/03-event-delegation/bagua-bubble.svg

<?xml version="1.0" encoding="UTF-8"?>
<svg width="369px" height="216px" viewBox="0 0 369 216" version="1.1" xmlns="http://www.w3.org/2000/svg" xmlns:xlink="http://www.w3.org/1999/xlink">
    <!-- Generator: sketchtool 61.2 (101010) - https://sketch.com -->
    <title>bagua-bubble.svg</title>
    <desc>Created with sketchtool.</desc>
    <g id="dom" stroke="none" stroke-width="1" fill="none" fill-rule="evenodd">
        <g id="bagua-bubble.svg">
            <polygon id="Rectangle-210" fill="#FFDE99" points="202.48764 140 217 186 103 186 117.51236 140"></polygon>
            <path d="M216.633566,81 L102.366434,81 L86.2766439,132 L232.723356,132 L216.633566,81 Z" id="Rectangle-209" stroke="#CFCE95" stroke-width="18"></path>
            <path d="M236.013506,29 L82.9864943,29 L60.2759239,101 L258.724076,101 L236.013506,29 Z" id="Rectangle-208" stroke="#99C0C3" stroke-width="18"></path>
            <path d="M164.499375,140.999344 L164.499875,154.816139 C164.499875,157.302139 162.484875,159.316139 160.000875,159.316139 C157.514875,159.316139 155.500875,157.302139 155.500875,154.816139 L155.500875,154.816139 L155.500375,140.999344 L164.499375,140.999344 Z M164.499375,109.999344 L164.499375,122.999344 L155.500375,122.999344 L155.500375,109.999344 L164.499375,109.999344 Z M160.000875,20.5311394 C161.210875,20.4821394 162.437875,20.9071394 163.361875,21.8311394 L163.361875,21.8311394 L181.001875,39.4711394 C182.758875,41.2281394 182.758875,44.0771394 181.001875,45.8351394 C179.243875,47.5921394 176.394875,47.5921394 174.637875,45.8351394 L174.637875,45.8351394 L164.499875,35.6981394 L164.499375,91.9993438 L155.500375,91.9993438 L155.500875,35.6981394 L145.361875,45.8351394 C143.605875,47.5921394 140.756875,47.5921394 138.998875,45.8351394 C137.240875,44.0771394 137.240875,41.2281394 138.998875,39.4711394 L138.998875,39.4711394 L156.637875,21.8311394 C157.563875,20.9071394 158.789875,20.4821394 160.000875,20.5311394 Z" id="Fill-46" fill="#5A4739"></path>
            <text id="&lt;table&gt;" font-family="PTMono-Bold, PT Mono" font-size="14" font-weight="bold" fill="#99C0C3">
                <tspan x="9" y="30">&lt;table&gt;</tspan>
            </text>
            <text id="&lt;td&gt;" font-family="PTMono-Bold, PT Mono" font-size="14" font-weight="bold" fill="#CFCE95">
                <tspan x="36" y="136">&lt;td&gt;</tspan>
            </text>
            <text id="&lt;strong&gt;" font-family="PTMono-Bold, PT Mono" font-size="14" font-weight="bold" fill="#E8C48E">
                <tspan x="35" y="181">&lt;strong&gt;</tspan>
            </text>
            <text id="event.target" font-family="OpenSans-Bold, Open Sans" font-size="14" font-weight="bold" fill="#8A704D">
                <tspan x="271.745605" y="181">event.target</tspan>
            </text>
            <line x1="229.5" y1="177.5" x2="259.5" y2="177.5" id="Line-30" stroke="#EE6B47" stroke-width="2" stroke-linecap="square" stroke-dasharray="3,6"></line>
        </g>
    </g>
</svg>

<svg xmlns="http://www.w3.org/2000/svg" width="369" height="216" viewBox="0 0 369 216"><defs><style>@import url(https://fonts.googleapis.com/css?family=Open+Sans:bold,italic,bolditalic%7CPT+Mono);@font-face{font-family:&apos;PT Mono&apos;;font-weight:700;font-style:normal;src:local(&apos;PT MonoBold&apos;),url(/font/PTMonoBold.woff2) format(&apos;woff2&apos;),url(/font/PTMonoBold.woff) format(&apos;woff&apos;),url(/font/PTMonoBold.ttf) format(&apos;truetype&apos;)}</style></defs><g id="dom" fill="none" fill-rule="evenodd" stroke="none" stroke-width="1"><g id="bagua-bubble.svg"><path id="Rectangle-210" fill="#DBAF88" d="M202.488 140L217 186H103l14.512-46z"/><path id="Rectangle-209" stroke="#91C2A3" stroke-width="18" d="M216.634 81l16.09 51H86.276l16.09-51h114.267z"/><path id="Rectangle-208" stroke="#EFA39F" stroke-width="18" d="M82.986 29h153.028l22.71 72H60.276l22.71-72z"/><path id="Fill-46" fill="#166388" d="M164.5 141v13.816a4.5 4.5 0 11-9 0V141h9zm0-31v13h-9v-13h9zM160 20.53a4.471 4.471 0 013.362 1.3l17.64 17.64a4.5 4.5 0 01-6.364 6.364L164.5 35.698V92h-9V35.7l-10.138 10.136a4.5 4.5 0 11-6.363-6.364l17.639-17.64a4.477 4.477 0 013.363-1.3z"/><text id="&lt;table&gt;" fill="#D35155" font-family="PTMono-Bold, PT Mono" font-size="14" font-weight="bold"><tspan x="9" y="30">&lt;table&gt;</tspan></text><text id="&lt;td&gt;" fill="#478964" font-family="PTMono-Bold, PT Mono" font-size="14" font-weight="bold"><tspan x="36" y="136">&lt;td&gt;</tspan></text><text id="&lt;strong&gt;" fill="#AF6E24" font-family="PTMono-Bold, PT Mono" font-size="14" font-weight="bold"><tspan x="35" y="181">&lt;strong&gt;</tspan></text><text id="event.target" fill="#AF6E24" font-family="OpenSans-Bold, Open Sans" font-size="14" font-weight="bold"><tspan x="271.537" y="181">event.target</tspan></text><path id="Line-30" stroke="#C06334" stroke-dasharray="3,6" stroke-linecap="square" stroke-width="2" d="M229.5 177.5h30"/></g></g></svg>
